!!!!SEGMENT: Mlu2003-Vulnerasti_cor_meum.krn
!!!id: Mlu2003
!!!AGN: Motet
!!!SCT: Lowinsky (1968)
!!!voices: 5
!!!COM: Pierre Moulu
!!!OTL: Vulnerasti cor meum
**kern	**kern	**kern	**kern	**kern
*part5	*part4	*part3	*part2	*part1
*staff5	*staff4	*staff3	*staff2	*staff1
*I"Bassus	*I"Tenor II	*I"Tenor I	*I"Altus	*I"Superius
*I'B	*I'T. II	*I'T. I	*I'A	*I'S
*clefF4	*clefGv2	*clefGv2	*clefGv2	*clefG2
*k[b-]	*k[b-]	*k[b-]	*k[]	*k[b-]
*F:	*F:	*F:	*C:	*F:
*M2/1	*M2/1	*M2/1	*M2/1	*M2/1
*met(C|)	*met(C|)	*met(C|)	*met(C)	*met(C|)
!!Section: Prima pars: Vulnerasti cor meum
!!!OMD: Prima pars: Vulnerasti cor meum
=1	=1	=1	=1	=1
0r	0r	0r	0r	0f
=2	=2	=2	=2	=2
0r	0r	0r	0r	1f
.	.	.	.	[1b-y
=3	=3	=3	=3	=3
0r	1r	0r	0r	2b-]
.	.	.	.	2b-y
.	[1F	.	.	2a
.	.	.	.	2f
=4	=4	=4	=4	=4
0r	1F]	0r	0r	1cc
.	1F	.	.	2r
.	.	.	.	2a
=5	=5	=5	=5	=5
0r	1.B-y	0r	[0f	1.dd
.	2B-y	.	.	2dd
=6	=6	=6	=6	=6
0r	2A	0F	0f]	2cc
.	2F	.	.	2dd
.	1c	.	.	[1a
=7	=7	=7	=7	=7
0r	2r	1F	[0f	1a]
.	2A	.	.	.
.	[1d	[1B-y	.	1r
=8	=8	=8	=8	=8
1r	2d]	2B-]	0f]	1r
.	2d	2B-y	.	.
2r	2c	2A	.	2r
2D	[2d	2F	.	2a
=9	=9	=9	=9	=9
1.G	4d]	1B-y	[0d	1.b-y
.	4c	.	.	.
.	4B-y	.	.	.
.	4A	.	.	.
.	1G	1r	.	.
2G	.	.	.	2b-y
=10	=10	=10	=10	=10
2F	2A	2r	0d]	2a
2G	2B-y	2d	.	2g
1D	1F	[1f	.	[1a
=11	=11	=11	=11	=11
2r	2r	2f]	[0d	1a]
2D	2A	2f	.	.
2.G	2.B-y	2.d	.	1r
4G	4B-y	4e	.	.
=12	=12	=12	=12	=12
2F	2A	2f	1d]	1r
2G	2B-y	2d	.	.
2C	1G	1e	1c	2r
2C	.	.	.	2g
=13	=13	=13	=13	=13
2.G	1r	2r	0d	2.b-y
.	.	2d	.	.
4G	.	.	.	4b-y
2F	2r	2d	.	2a
2G	2G	2d	.	2b-y
=14	=14	=14	=14	=14
0C	2G	2.g	0e	2cc
.	2G	.	.	2g
.	.	4f	.	.
.	2.c	2e	.	2g
.	.	2d	.	2g
.	4B-y	.	.	.
=15	=15	=15	=15	=15
0r	1.A	2c	[0f	1.cc
.	.	2.F	.	.
.	.	4G	.	.
.	2G	4A	.	2b-y
.	.	4B-y	.	.
=16	=16	=16	=16	=16
0r	2F	0c	1f]	2a
.	4E	.	.	2f
.	4D	.	.	.
.	1C	.	1e	2g
.	.	.	.	2g
=17	=17	=17	=17	=17
1D	0r	1A	[0d	1f
2D	.	2r	.	1r
2D	.	2d	.	.
=18	=18	=18	=18	=18
1.G	1r	2d	0d]	2r
.	.	2d	.	2g
.	2r	[1g	.	2g
2F	2G	.	.	2g
=19	=19	=19	=19	=19
2.E	2G	2g]	[0c	1.cc
.	2G	2f	.	.
4D	.	.	.	.
[1C	[1c	[1e	.	.
.	.	.	.	2b-y
=20	=20	=20	=20	=20
1C]	2c]	2e]	0c]	2a
.	2B-y	2d	.	2g
[1F	2A	2c	.	2f
.	2F	2c	.	[2a
=21	=21	=21	=21	=21
1F]	1A	1c	0r	4a]
.	.	.	.	4g
.	.	.	.	2.f
1C	1G	2r	.	.
.	.	.	.	8eL
.	.	.	.	8dJ
.	.	2c	.	2e
=22	=22	=22	=22	=22
[0FF	1F	1.c	0r	0f
.	1r	.	.	.
.	.	2B-y	.	.
=23	=23	=23	=23	=23
1FF]	1c	2A	[0f	1r
.	.	2G	.	.
1r	[1c	[1F	.	1cc
=24	=24	=24	=24	=24
1F	2c]	1F]	0f]	1.cc
.	2B-y	.	.	.
[1F	2A	2r	.	.
.	2G	2f	.	2b-y
=25	=25	=25	=25	=25
2F]	[0F	1.f	0f	2a
2E	.	.	.	2g
2D	.	.	.	1f
2C	.	2e	.	.
=26	=26	=26	=26	=26
1BB-y	0F]	2d	0f	1b-y
.	.	2d	.	.
1r	.	[1c	.	2a
.	.	.	.	2a
=27	=27	=27	=27	=27
1C	2r	1c]	0e	1g
.	2G	.	.	.
[1C	2.G	1r	.	2r
.	.	.	.	2cc
.	4F	.	.	.
=28	=28	=28	=28	=28
2C]	2E	1c	0e	1.cc
2BB-y	2D	.	.	.
2AA	[1C	[1c	.	.
2GG	.	.	.	2b-y
=29	=29	=29	=29	=29
1FF	0C]	2c]	0f	2a
.	.	2B-y	.	2f
2r	.	1A	.	2.a
2FF	.	.	.	.
.	.	.	.	4b-y
=30	=30	=30	=30	=30
2.AA	2r	1A	0e	1.cc
.	2C	.	.	.
4BB-y	.	.	.	.
2C	2.E	[1G	.	.
2C	.	.	.	2g
.	4F	.	.	.
=31	=31	=31	=31	=31
0GG	2G	2G]	[0d	1.b-y
.	2G	2G	.	.
.	[1D	2B-y	.	.
.	.	2B-y	.	4a
.	.	.	.	4g
=32	=32	=32	=32	=32
1r	0D]	2A	0d]	2.f
.	.	2d	.	.
.	.	.	.	4g
2r	.	[1f	.	[1a
2D	.	.	.	.
=33	=33	=33	=33	=33
1.F	2r	2f]	[0c	0a]
.	2A	2f	.	.
.	[1c	1c	.	.
2F	.	.	.	.
=34	=34	=34	=34	=34
[0C	2c]	2c	0c]	1g
.	2c	2d	.	.
.	1G	[1e	.	2r
.	.	.	.	2g
=35	=35	=35	=35	=35
1C]	2r	1e]	0r	2g
.	2G	.	.	2g
1r	2G	[1d	.	[1b-y
.	2G	.	.	.
=36	=36	=36	=36	=36
0r	1.B-y	0d]	0r	2b-]
.	.	.	.	2a
.	.	.	.	2g
.	2A	.	.	2f
=37	=37	=37	=37	=37
0r	2G	0r	[0d	2b-y
.	2F	.	.	1a
.	2B-y	.	.	.
.	4A	.	.	2g
.	4G	.	.	.
=38	=38	=38	=38	=38
1D	0F	2r	0d]	0a
.	.	2A	.	.
2D	.	2A	.	.
2D	.	2A	.	.
=39	=39	=39	=39	=39
1.G	0r	1.B-y	0d	0r
2F	.	2A	.	.
=40	=40	=40	=40	=40
2G	1r	2B-y	0d	0r
2G	.	2B-y	.	.
1D	2r	2.A	.	.
.	2A	.	.	.
.	.	4B-y	.	.
=41	=41	=41	=41	=41
0r	1A	2c	0e	2r
.	.	1d	.	2a
.	1A	.	.	1a
.	.	2c#i	.	.
=42	=42	=42	=42	=42
0r	1.d	1d	[0f	1a
.	.	1r	.	[1dd
.	2c	.	.	.
=43	=43	=43	=43	=43
0r	2B-y	0r	0f]	2dd]
.	2A	.	.	2cc
.	1d	.	.	2a
.	.	.	.	2b-y
=44	=44	=44	=44	=44
1AA	2.c	1r	0e	0cc
.	4B-y	.	.	.
2AA	4c	1A	.	.
.	4B-y	.	.	.
2AA	4A	.	.	.
.	4G	.	.	.
=45	=45	=45	=45	=45
1.D	2.F	2A	[0f	0r
.	.	2A	.	.
.	4G	.	.	.
.	1A	[1d	.	.
2C	.	.	.	.
=46	=46	=46	=46	=46
2BB-y	2.D	2d]	0f]	0r
2AA	.	2c	.	.
.	4E	.	.	.
1D	2F	2B-y	.	.
.	2D	2A	.	.
=47	=47	=47	=47	=47
*	*	*	*k[b-]	*
*	*	*	*F:	*
0GG	2.G	1B-y	0r	1dd
.	4F	.	.	.
.	[1D	2r	.	2dd
.	.	2d	.	2dd
=48	=48	=48	=48	=48
2r	1D]	2d	0f	1.a
2D	.	2d	.	.
2D	2r	1A	.	.
2D	2A	.	.	2a
=49	=49	=49	=49	=49
2AA	2A	2A	0e	2cc
2AA	2A	2c	.	2cc
2C	2E	2c	.	2g
2C	2E	2G	.	2g
=50	=50	=50	=50	=50
1GG	2G	2r	0d	1b-y
.	2G	2d	.	.
2r	1D	1f	.	1b-y
2D	.	.	.	.
=51	=51	=51	=51	=51
1F	2r	1f	[0c	2a
.	2A	.	.	4f
.	.	.	.	4g
1F	1c	2.c	.	4a
.	.	.	.	4b-y
.	.	.	.	[2cc
.	.	4d	.	.
=52	=52	=52	=52	=52
2.C	2c	4e	1c]	2cc]
.	.	4f	.	.
.	2G	1g	.	4b-y
4D	.	.	.	4a
4E	4G	.	1B-y	[1g
4F	4A	.	.	.
[2G	4B-y	4f	.	.
.	4c	4e	.	.
=53	=53	=53	=53	=53
1G]	0d	2d	1B-y	1g]
.	.	2g	.	.
2D	.	2f	2A	1r
2E	.	4e	2G	.
.	.	4d	.	.
=54	=54	=54	=54	=54
2.F	2r	4c	1A	0r
.	.	4B-y	.	.
.	2c	4A	.	.
4E	.	4G	.	.
2D	2d	2F	1B-y	.
2BB-y	2d	[2f	.	.
=55	=55	=55	=55	=55
1C	2c	2f]	1G	0r
.	2c	2e	.	.
2r	1A	2.f	1F	.
2D	.	.	.	.
.	.	4e	.	.
=56	=56	=56	=56	=56
1G	2r	4d	0B-y	0r
.	.	4c	.	.
.	2G	1d	.	.
1G	1d	.	.	.
.	.	4c	.	.
.	.	4B-y	.	.
=57	=57	=57	=57	=57
1F	1d	2f	0A	0r
.	.	4F	.	.
.	.	4G	.	.
2D	2.c	4A	.	.
.	.	4B-y	.	.
[2F	.	[2c	.	.
.	4B-y	.	.	.
=58	=58	=58	=58	=58
4F]	4A	4c]	0F	0r
4E	4G	4F	.	.
4D	1c	1f	.	.
4C	.	.	.	.
1D	.	.	.	.
.	2Bni	4e	.	.
.	.	4d	.	.
=59	=59	=59	=59	=59
0C	1c	[0e	[0G	2r
.	.	.	.	2g
.	2r	.	.	2g
.	2G	.	.	2g
=60	=60	=60	=60	=60
1C	2G	1e]	0G]	1.cc
.	2G	.	.	.
2C	[1c	2r	.	.
2C	.	2c	.	2b-y
=61	=61	=61	=61	=61
1.F	2c]	2c	[0F	2.a
.	2B-y	2c	.	.
.	.	.	.	4g
.	2.A	1f	.	1f
2E	.	.	.	.
.	4G	.	.	.
=62	=62	=62	=62	=62
2.D	1F	2.f	0F]	2r
.	.	.	.	2f
4C	.	4e	.	.
1BB-y	2r	2d	.	2f
.	2D	2f	.	2f
=63	=63	=63	=63	=63
0r	2D	2f	0r	1a
.	2D	2f	.	.
.	1G	1d	.	1g
=64	=64	=64	=64	=64
2r	2D	0d	0r	2r
2D	2A	.	.	2f
2D	2A	.	.	2f
2D	2A	.	.	2f
=	=	=	=	=
*	*	*	*M2/1	*
*	*	*	*met(2)	*
1G	1B-y	1r	0d	1g
1D	2A	1f	.	2f
.	2D	.	.	2a
=65	=65	=65	=65	=65
0r	2D	2f	1d	2a
.	2D	2f	.	2a
.	1G	1g	1d	1b-y
=66	=66	=66	=66	=66
1r	1C	1g	1e	1cc
2r	1D	2r	[1f	2r
2D	.	2d	.	2a
=67	=67	=67	=67	=67
2D	0r	2.d	1f]	2a
2D	.	.	.	2a
.	.	4d	.	.
1G	.	2.B-y	1e	1b-y
.	.	4c	.	.
=68	=68	=68	=68	=68
1D	2r	2d	0f	1a
.	2D	2A	.	.
1r	2D	2A	.	2r
.	2D	2A	.	[2a
=69	=69	=69	=69	=69
0r	1G	1B-y	1r	2a]
.	.	.	.	2g
.	1D	2A	1f	2a
.	.	2d	.	[2b-y
=70	=70	=70	=70	=70
0r	1r	2c	1e	4b-]
.	.	.	.	4a
.	.	2A	.	1a
.	2r	1B-y	1d	.
.	2G	.	.	2g
=71	=71	=71	=71	=71
0r	2.c	4A	1.c	2a
.	.	4B-y	.	.
.	.	4c	.	2.g
.	4B-y	4d	.	.
.	2A	2e	.	.
.	.	.	.	4f
.	2B-y	[2d	2B-y	[2f
=72	=72	=72	=72	=72
1r	1G	2d]	2B-y	2f]
.	.	4c	4A	2e
.	.	4B-y	4G	.
2r	2.F	2c	2A	1f
2BB-y	.	2d	2B-y	.
.	8EL	.	.	.
.	8DJ	.	.	.
=73	=73	=73	=73	=73
2C	2E	2c	2G	2r
2D	2F	2A	2F	2f
4BB-y	4D	2.B-y	1B-y	2.f
4C	4E	.	.	.
4D	[2F	.	.	.
4E	.	4A	.	4g
=74	=74	=74	=74	=74
2.F	2F]	1F	1A	4a
.	.	.	.	4b-y
.	4E	.	.	1cc
4FF	4D	.	.	.
1FF	1C	2r	1F	.
.	.	[2f	.	4b-y
.	.	.	.	4a
=75	=75	=75	=75	=75
2r	2r	2f]	0G	2b-y
2C	2c	4e	.	2cc
.	.	4d	.	.
2C	2c	2e	.	1g
2C	2c	2e	.	.
=76	=76	=76	=76	=76
1.D	1.A	1.f	[0Fl	2r
.	.	.	.	2a
.	.	.	.	2f
2BB-y	2B-y	2d	.	2f
=77	=77	=77	=77	=77
[0BB-yl	[0B-yl	[0dl	0F_	1.b-y
.	.	.	.	4a
.	.	.	.	4g
=	=	=	=	=
00BB-]	00B-]	00d]	00F]	00f
=||	=||	=||	=||	=||
*M2/1	*M2/1	*M2/1	*M2/1	*M2/1
*met(C|)	*met(C|)	*met(C|)	*met(C)	*met(C|)
!!Section: Secunda pars: Et uox tua
!!!OMD: Secunda pars: Et uox tua
1C	1G	0r	0r	0r
[1F	[1A	.	.	.
=78	=78	=78	=78	=78
2F]	2A]	0r	0r	0r
2E	2G	.	.	.
1D	1A	.	.	.
=79	=79	=79	=79	=79
1D	1B-y	1r	0r	1r
1C	1c	2r	.	1g
.	.	2c	.	.
=80	=80	=80	=80	=80
0r	0r	1.f	0r	1.a
.	.	2e	.	2g
=81	=81	=81	=81	=81
0r	0r	1d	[0f	1a
.	.	1d	.	1b-y
=82	=82	=82	=82	=82
1F	2r	1c	0f]	1cc
.	2c	.	.	.
[1B-y	[1d	1r	.	1r
=83	=83	=83	=83	=83
2B-]	2d]	2r	[0f	0r
2A	2c	2F	.	.
2B-y	2d	[1B-y	.	.
2B-y	2d	.	.	.
=84	=84	=84	=84	=84
1F	1c	2B-]	0f]	2r
.	.	2A	.	2f
1r	1r	2B-y	.	[1b-y
.	.	2B-y	.	.
=85	=85	=85	=85	=85
2r	2r	1F	[0d	2b-]
2D	2F	.	.	2a
[1G	[1B-y	1r	.	2b-y
.	.	.	.	2b-y
=86	=86	=86	=86	=86
2G]	2B-]	2r	0d]	2g
2F	2A	2d	.	1dd
2G	2.B-y	2g	.	.
2G	.	2g	.	4cc
.	4c	.	.	4b-y
=87	=87	=87	=87	=87
1D	2d	1f	[0d	2a
.	2D	.	.	2f
1r	2G	2d	.	2b-y
.	2F	[2f	.	2a
=88	=88	=88	=88	=88
0r	1D	2f]	1d]	2.f
.	.	4e	.	.
.	.	4d	.	4g
.	1A	1e	1c	1a
=89	=89	=89	=89	=89
2r	1D	2f	0d	0a
2D	.	1F	.	.
2F	2r	.	.	.
2F	2A	2A	.	.
=90	=90	=90	=90	=90
2C	2c	2A	0e	0r
2C	2c	2.G	.	.
1E	2G	.	.	.
.	.	4A	.	.
.	2G	4B-y	.	.
.	.	4c	.	.
=91	=91	=91	=91	=91
0D	1B-y	1.d	[0f	1r
.	1A	.	.	1a
.	.	4c	.	.
.	.	4B-y	.	.
=92	=92	=92	=92	=92
0r	2r	1A	1f]	2cc
.	2A	.	.	2cc
.	2c	2r	1e	2g
.	2c	2e	.	2g
=93	=93	=93	=93	=93
1r	2G	2g	[0d	1.b-y
.	2G	2g	.	.
2r	[1B-y	1f	.	.
2D	.	.	.	2a
=94	=94	=94	=94	=94
2G	1B-]	2r	0d]	1g
2G	.	2d	.	.
2D	[1A	[1f	.	1a
2D	.	.	.	.
=95	=95	=95	=95	=95
1F	1A]	2f]	[0c	2r
.	.	4c	.	2a
.	.	4d	.	.
1C	2.G	4e	.	[1cc
.	.	4f	.	.
.	.	[2g	.	.
.	4F	.	.	.
=96	=96	=96	=96	=96
2r	4E	2g]	0c]	2cc]
.	4D	.	.	.
2AA	2C	1f	.	2cc
2C	2r	.	.	2g
2C	2C	2e	.	2g
=97	=97	=97	=97	=97
2FF	2F	1f	0r	1a
2FF	2F	.	.	.
2BB-y	4D	1r	.	[1f
.	4E	.	.	.
4AA	4F	.	.	.
4GG	4G	.	.	.
=98	=98	=98	=98	=98
2FF	2A	2r	0r	1f]
2AA	1F	2c	.	.
1GG	.	2B-y	.	1r
.	2E	2B-y	.	.
=99	=99	=99	=99	=99
1FF	1F	2A	[0f	1cc
.	.	2.c	.	.
1r	2r	.	.	2cc
.	.	4B-y	.	.
.	2c	4A	.	2cc
.	.	4G	.	.
=100	=100	=100	=100	=100
0F	2c	2.F	0f]	2a
.	2c	.	.	2.cc
.	.	4G	.	.
.	2A	[1A	.	.
.	.	.	.	4b-y
.	[2c	.	.	4a
.	.	.	.	4g
=101	=101	=101	=101	=101
1F	4c]	1A]	0f	1a
.	4B-y	.	.	.
.	4A	.	.	.
.	4G	.	.	.
1F	1F	2r	.	2r
.	.	2A	.	2f
=102	=102	=102	=102	=102
1BB-y	1r	1d	0f	1b-y
1BB-y	2r	1d	.	1b-y
.	2D	.	.	.
=103	=103	=103	=103	=103
[0C	2.G	2c	0e	1g
.	.	2G	.	.
.	4F	.	.	.
.	2.E	2.c	.	2r
.	.	.	.	2g
.	4D	4B-y	.	.
=104	=104	=104	=104	=104
1C]	2C	2A	0e	2.cc
.	2G	2G	.	.
.	.	.	.	4b-y
2r	2.c	2r	.	2a
2C	.	2G	.	2g
.	4B-y	.	.	.
=105	=105	=105	=105	=105
1F	2.A	2A	0f	2f
.	.	1c	.	1a
.	4G	.	.	.
1D	1F	.	.	.
.	.	2Bni	.	4g
.	.	.	.	4f
=106	=106	=106	=106	=106
1C	2r	1c	0e	4a
.	.	.	.	4g
.	2G	.	.	2.cc
2r	2.c	1r	.	.
.	.	.	.	4b-y
2AA	.	.	.	4a
.	4B-y	.	.	4g
=107	=107	=107	=107	=107
2.D	4A	2r	[0d	1f
.	4G	.	.	.
.	4F	2A	.	.
4C	4E	.	.	.
2.BB-y	1D	2.d	.	2r
.	.	.	.	2f
4AA	.	4c	.	.
=108	=108	=108	=108	=108
1GG	2r	2.B-y	0d]	0b-y
.	2D	.	.	.
.	.	4A	.	.
2r	2.G	1G	.	.
2GG	.	.	.	.
.	4F	.	.	.
=109	=109	=109	=109	=109
2.C	2.E	2r	[0c	1g
.	.	2G	.	.
4BB-y	4D	.	.	.
2.AA	[1C	2.c	.	[1a
4GG	.	4B-y	.	.
=110	=110	=110	=110	=110
1FF	2C]	2A	0c]	1a]
.	2.F	2F	.	.
1C	.	1G	.	2r
.	8EL	.	.	.
.	8DJ	.	.	.
.	2E	.	.	2g
=111	=111	=111	=111	=111
[0FF	1F	1A	0r	1.cc
.	1r	2r	.	.
.	.	2c	.	2cc
=112	=112	=112	=112	=112
1FF]	1F	1.f	0r	1a
1r	[1B-y	.	.	1f
.	.	2f	.	.
=113	=113	=113	=113	=113
0r	2B-]	1d	[0d	1.b-y
.	2B-y	.	.	.
.	[1G	[1B-y	.	.
.	.	.	.	2a
=114	=114	=114	=114	=114
0r	2G]	2B-]	0d]	0g
.	2F	2A	.	.
.	2.G	2.B-y	.	.
.	4A	4c	.	.
=115	=115	=115	=115	=115
1r	1B-y	2d	0d	0f
.	.	2e	.	.
1D	1A	1f	.	.
=116	=116	=116	=116	=116
1.G	1r	2r	0d	0r
.	.	2d	.	.
.	2r	[1g	.	.
2G	2G	.	.	.
=117	=117	=117	=117	=117
1E	1.c	2g]	0e	0r
.	.	2g	.	.
1C	.	1e	.	.
.	2c	.	.	.
=118	=118	=118	=118	=118
1.F	1A	2c	[0f	0r
.	.	2.d	.	.
.	2F	.	.	.
.	.	4c	.	.
2E	2G	[2c	.	.
=119	=119	=119	=119	=119
0D	2A	2c]	0f]	0r
.	2A	4Bni	.	.
.	.	4A	.	.
.	1F	1Bni	.	.
=120	=120	=120	=120	=120
0C	2r	1c	0e	1r
.	2G	.	.	.
.	[1c	1r	.	1g
=121	=121	=121	=121	=121
0FF	2c]	2r	[0f	1.cc
.	2c	2c	.	.
.	1A	[1f	.	.
.	.	.	.	2cc
=122	=122	=122	=122	=122
0r	1F	2f]	0f]	1a
.	.	2f	.	.
.	1B-y	2d	.	2f
.	.	[2B-y	.	[2b-y
=123	=123	=123	=123	=123
0r	2G	2B-]	0r	2b-]
.	2A	2c	.	2.a
.	2B-y	2d	.	.
.	.	.	.	8gL
.	.	.	.	8fJ
.	2c	2e	.	2g
=124	=124	=124	=124	=124
1D	1F	2f	0f	0a
.	.	2F	.	.
2D	2r	2.A	.	.
2D	2A	.	.	.
.	.	4B-y	.	.
=125	=125	=125	=125	=125
1.C	2A	1.c	0e	0r
.	2A	.	.	.
.	[1G	.	.	.
2GG	.	2B-y	.	.
=126	=126	=126	=126	=126
1BB-y	2G]	2B-y	0d	0r
.	2E	4A	.	.
.	.	4G	.	.
1BB-y	1F	2F	.	.
.	.	2G	.	.
=127	=127	=127	=127	=127
0AA	1F	1A	[0c	2r
.	.	.	.	2a
.	1E	2r	.	2a
.	.	2e	.	2a
=128	=128	=128	=128	=128
0r	0r	2e	1c]	1.g
.	.	2e	.	.
.	.	[1d	1B-y	.
.	.	.	.	2d
=129	=129	=129	=129	=129
0r	0r	2d]	1B-y	1f
.	.	2B-y	.	.
.	.	2c	2A	1f
.	.	[2d	2G	.
=130	=130	=130	=130	=130
1r	2r	4d]	1A	1e
.	.	8c#iL	.	.
.	.	8BniJ	.	.
.	2A	2c#i	.	.
1BB-y	2.d	1d	1B-y	1r
.	4c	.	.	.
=131	=131	=131	=131	=131
2E-X	2B-y	2r	1G	0r
2E-i	4A	2c	.	.
.	4G	.	.	.
1D	2A	2d	1F	.
.	2D	[2f	.	.
=132	=132	=132	=132	=132
0r	1G	2f]	0B-y	0r
.	.	4e	.	.
.	.	4d	.	.
.	1G	1e	.	.
=133	=133	=133	=133	=133
1D	1.F	2.f	0A	0r
.	.	4e	.	.
[1F	.	2d	.	.
.	2G	2c	.	.
=134	=134	=134	=134	=134
2F]	1A	1f	0F	0r
2E	.	.	.	.
1D	1B-y	1f	.	.
=135	=135	=135	=135	=135
0C	0c	0e	[0G	1r
.	.	.	.	2r
.	.	.	.	2g
=136	=136	=136	=136	=136
0r	2r	1r	0G]	1b-y
.	2G	.	.	.
.	1d	2r	.	1b-y
.	.	2d	.	.
=137	=137	=137	=137	=137
0r	1d	1f	[0F	1a
.	1c	2f	.	2r
.	.	4e	.	2a
.	.	4d	.	.
=138	=138	=138	=138	=138
0r	2r	1c	0F]	1.cc
.	2A	.	.	.
.	[1c	1r	.	.
.	.	.	.	4b-y
.	.	.	.	4a
=	=	=	=	=
*	*	*	*M2/1	*
*	*	*	*met(2)	*
0r	2c]	2r	0r	2.g
.	4B-y	2e	.	.
.	4A	.	.	4a
.	2G	2.g	.	2b-y
.	2A	.	.	[2a
.	.	8fL	.	.
.	.	8eJ	.	.
=139	=139	=139	=139	=139
1r	1B-y	2.d	0r	2a]
.	.	.	.	2g
.	.	4e	.	.
1D	2A	2.f	.	[1a
.	2F	.	.	.
.	.	8eL	.	.
.	.	8dJ	.	.
=140	=140	=140	=140	=140
2.F	2.F	1c	0f	1a]
4E	4G	.	.	.
4D	2A	2r	.	1r
4C	.	.	.	.
2BB-y	[2B-y	2d	.	.
=141	=141	=141	=141	=141
1F	2B-]	2d	0f	2r
.	2A	2c	.	2f
4BB-y	1B-y	2.d	.	2.f
4C	.	.	.	.
4D	.	.	.	.
4E	.	8cL	.	4g
.	.	8B-yJ	.	.
=142	=142	=142	=142	=142
2F	0r	2A	0d	2a
2.G	.	2G	.	1b-y
.	.	1B-y	.	.
4F	.	.	.	.
2G	.	.	.	4a
.	.	.	.	4g
=143	=143	=143	=143	=143
0D	2r	1A	1.d	2f
.	2A	.	.	2f
.	2B-y	1r	.	2g
.	2A	.	2c	[2a
=144	=144	=144	=144	=144
1r	2B-y	2r	1d	2a]
.	2B-y	2d	.	2g
2r	1A	2d	1e	1a
2AA	.	2c	.	.
=145	=145	=145	=145	=145
2.D	1D	2d	1.f	1a
.	.	2.A	.	.
4C	.	.	.	.
2D	1r	.	.	2d
.	.	4B-y	.	.
2C	.	2c	2e	2g
=146	=146	=146	=146	=146
0D	2r	2.F	0d	2f
.	2A	.	.	2d
.	.	4G	.	.
.	2F	1A	.	1f
.	2D	.	.	.
=147	=147	=147	=147	=147
1AA	2A	[0A	0c	1e
.	4G	.	.	.
.	4F	.	.	.
2r	1E	.	.	2r
2AA	.	.	.	2e
=148	=148	=148	=148	=148
2.D	0r	0A]	0r	2.f
4C	.	.	.	4e
2D	.	.	.	2f
2C	.	.	.	2e
=149	=149	=149	=149	=149
1D	1F	2r	0f	1f
.	.	2A	.	.
1BB-y	2.B-y	2.d	.	1d
.	4A	4c	.	.
=150	=150	=150	=150	=150
0r	2B-y	2d	1f	0r
.	2A	2c	.	.
.	2B-y	2d	1f	.
.	[2A	[2c	.	.
=151	=151	=151	=151	=151
0r	2A]	4c]	1e	2r
.	.	4A	.	.
.	4G	2.d	.	2a
.	4F	.	.	.
.	1E	.	1e	2g
.	.	8cL	.	.
.	.	8B-yJ	.	.
.	.	2c	.	2g
=152	=152	=152	=152	=152
2r	1D	4F	1f	4a
.	.	4G	.	4d
2D	.	4A	.	2.a
.	.	4B-y	.	.
2C	1r	2.c	1e	.
.	.	.	.	4g
2C	.	.	.	[2g
.	.	4B-y	.	.
=153	=153	=153	=153	=153
2D	2r	2A	0d	2g]
2D	2A	1D	.	2f#i
1GG	2G	.	.	1g
.	2G	[2G	.	.
=154	=154	=154	=154	=154
0r	2.A	4G]	0c	2r
.	.	8FL	.	.
.	.	8EJ	.	.
.	.	2F	.	2a
.	8GL	.	.	.
.	8FJ	.	.	.
.	2E	1G	.	2g
.	2E	.	.	2g
=155	=155	=155	=155	=155
2r	1D	2r	0r	4a
.	.	.	.	4d
2D	.	2d	.	2.a
2C	1r	4e	.	.
.	.	4d	.	4g
2C	.	4c	.	[2g
.	.	4B-y	.	.
=156	=156	=156	=156	=156
2D	2r	2A	0d	2g]
2D	2A	2d	.	2f#i
2GG	2G	4B-y	.	1g
.	.	4c	.	.
2G	2G	4d	.	.
.	.	4e	.	.
=157	=157	=157	=157	=157
2F	1A	2f	1d	0r
2F	.	2f	.	.
2G	1B-y	2B-y	1d	.
2G	.	2G	.	.
=158	=158	=158	=158	=158
1C	1c	2.c	1e	1g
.	.	4B-y	.	.
1r	1r	2A	[1f	2.cc
.	.	2G	.	.
.	.	.	.	4b-y
=159	=159	=159	=159	=159
1r	2r	1F	1f]	2a
.	2F	.	.	4g
.	.	.	.	4f
1C	[1c	2r	1e	1g
.	.	[2c	.	.
=160	=160	=160	=160	=160
1.F	2c]	2c]	0f	0a
.	2B-y	4f	.	.
.	.	4e	.	.
.	2A	4d	.	.
.	.	4c	.	.
2E	2G	[2c	.	.
=161	=161	=161	=161	=161
2.D	0F	2c]	1r	0r
.	.	4Bni	.	.
4C	.	4A	.	.
1D	.	1Bni	1f	.
=162	=162	=162	=162	=162
1C	2G	1c	1e	2r
.	2E	.	.	2g
2r	2F	2F	1d	2a
2GG	2G	2B-y	.	2b-y
=163	=163	=163	=163	=163
2.AA	2.C	1A	1.c	1cc
4BB-y	4D	.	.	.
2.C	2.E	1G	.	2r
.	.	.	2B-y	2g
4D	4F	.	.	.
=164	=164	=164	=164	=164
2E	2G	2r	2B-y	2g
1F	4F	2c	4A	2a
.	4E	.	4G	.
.	2D	1d	2A	2f
2G	[2G	.	2B-y	[2b-y
=165	=165	=165	=165	=165
2GG	2G]	2B-y	2G	2b-]
2AA	2C	2c	2F	4a
.	.	.	.	4g
2.BB-y	2.D	2r	1B-y	2.f
.	.	2F	.	.
4C	4E	.	.	4e
=166	=166	=166	=166	=166
2.D	2.F	2.F	1A	4f
.	.	.	.	4g
.	.	.	.	1a
4E	4E	4G	.	.
2F	1D	2.A	1F	.
2FF	.	.	.	4g
.	.	4B-y	.	4f
=167	=167	=167	=167	=167
1C	1C	0c	0G	2e
.	.	.	.	1f
1C	2r	.	.	.
.	2G	.	.	2e
=168	=168	=168	=168	=168
1FF	1.c	1A	[0Fl	[0fl
2r	.	2r	.	.
2FF	4B-y	2A	.	.
.	4A	.	.	.
=169	=169	=169	=169	=169
1BB-y	1B-y	1d	0F_	0f_
1BB-y	1B-y	1d	.	.
=170	=170	=170	=170	=170
00FFl	00Al	00cl	00F]	00f]
==	==	==	==	==
*-	*-	*-	*-	*-
!!!system-decoration: [*]
!!!RDF**kern: i = editorial accidental
!!!RDF**kern: l = terminal long
!!!ENC: Benjamin Ory
!!!END: 2021/1/25
!!!EED: Benjamin Ory
!!!EEV: 2022/05/05
!!!YEC: Copyright 2022 Benjamin Ory, All Rights Reserved
!!!ONB: Translated from MusicXML on 2022/05/05
